X:1
T:Greenwood (Prout), 66.46.66.4
T:Greenwood (Prout), 66.46.66.4
T:Ebenezer Prout (1835-1909)
T:Public Domain Courtesy of the Cyber Hymnal™
C:Ebenezer Prout (1835-1909)
Z:Public Domain
Z:Courtesy of the Cyber Hymnal™
%%score ( 1 2 ) ( 3 4 )
L:1/8
Q:1/4=107
M:3/4
K:C
V:1 treble 
V:2 treble 
V:3 bass 
V:4 bass 
V:1
 c2 E2 F2 | G3 A G2 | [Ge]2 [Gd]2 [Gc]2 | [Ac]3 [GB] [FA]2 | [DA]2 [EG]2 [^Fc]2 | (c4 B2) | %6
 [GB]2 [Gc]2 [Gd]2 | [Ge]3 [Gd] [Gc]2 | [A^c]2 [Ad]2 [Ae]2 | [Af]3 [Ae] [Ad]2 | [Gd]2 [GB]2 G2 | %11
 [Gc]3 [FB] [Gc]2 | [FA]2 [DG]2 [FG]2 | [EG]6 |] %14
V:2
 c2 E2 F2 | G3 A G2 | x6 | x6 | x6 | G6 | x6 | x6 | x6 | x6 | x4 G2 | x6 | x6 | x6 |] %14
V:3
 C2 E,2 F,2 | G,3 A, G,2 | [C,C]2 [D,B,]2 [E,C]2 | [F,C]3 [F,C] [F,C]2 | [^F,C]2 [G,C]2 [A,C]2 | %5
 (E4 D2) | [F,D]2 [E,C]2 [D,B,]2 | [C,C]3 [D,B,] [E,C]2 | [G,E]2 [F,D]2 [E,^C]2 | %9
 [D,D]3 [E,^C] [F,D]2 | [G,B,]2 [G,D]2 [F,B,]2 | [E,C]3 [D,D] [C,E]2 | [F,C]2 [G,C]2 [G,,B,]2 | %13
 [C,C]6 |] %14
V:4
 C2 E,2 F,2 | G,3 A, G,2 | x6 | x6 | x6 | G,6 | x6 | x6 | x6 | x6 | x6 | x6 | x6 | x6 |] %14

